to draw_snake
cs
setpensize 10
setpc 5
fd 100
repeat 100 [WAIT 1 setpensize 10 setpc 5 BACK 100 PENERASE FORWARD 1 PENPAINT FORWARD 1 PENUP FORWARD 97 PENDOWN FORWARD 2 setpensize 1 setpc 0 left 90 arc -180 4 rt 90]
end

